X: 1
T: Reel de Valcourt
C: Tidal Wave
S: printed copy of unknown origin, from Paul Lizotte 2015-7-20
R: reel
M: 2/4
L: 1/16
K: D
|:\
"D"D2FD "A"EDCE | "D"D2FA ~d2cd | "G"edBc ~dBAG | "D"FEDF "A7"~EDCE |
"D"D2FD "A"EDCE | "D"D2FA ~d2cd | "G"edBc ~dBAG | "D"FD"A7"EC "D"D2A,2 :|
|:\
"D"d2dc ~B2A2 | "A"ce2d cABA | "G"D2EF GBAG | "D"FAFD "A7"EDCE |
"D"D2FD "A"EDCE | "D"D2FA ~d2cd | "G"edBc ~dBAG | "D"FD"A7"EC "D"D4 :|

%%sep 1 1 500

